X:11
T:Finlay and Angela's Anniversary
R:marching air
C:Carl MacKenzie, SOCAN
D:Highland Classic, Carl MacKenzie, 2007 S:http://www.cranfordpub.com/recordings/carl.htm
Z:psc -  http://www.cranfordpub.com
L:1/8
Q:244
M:C|
K:D
FE|D2 A2 G>FE>D|F>AdG|A<df>e d>fa>g|f>dA<F G>EC>A,|
D2 D<A G>FE>D|F>Ad<e f>dA>F|Gd c<eA<c|d4 d2:|
||f>g|a2 d2 g>ec<A|d>cd<f A2 d>c|B>GB<d A<FE>D|F2 E2 E2 f>g|
a2 f<a g>ec<A|d>cd<e f>dA>F|Gd c<e A/B/c|d2 D2 D2 f>g|
a2 f<a g>ec<A|d>cd<e f>dA>F|G>FGD|F2 E2 E2 A>G|
F>DF<A d>AF>A|B<GB<d g>ba>g|f>dc<e d>AG<E|F2 D2 D2|]
